polaris-icons/icons/newicons/KeyMajor.svg

<svg width="20" height="20" viewBox="0 0 20 20" fill="none" xmlns="http://www.w3.org/2000/svg">
<path d="M11 6.5C11 7.05228 10.5523 7.5 10 7.5C9.44772 7.5 9 7.05228 9 6.5C9 5.94772 9.44772 5.5 10 5.5C10.5523 5.5 11 5.94772 11 6.5Z" fill="black"/>
<path fill-rule="evenodd" clip-rule="evenodd" d="M4.5 7.5C4.5 4.46243 6.96243 2 10 2C13.0376 2 15.5 4.46243 15.5 7.5V8.5C15.5 9.88071 14.3807 11 13 11H12.8696C13.6543 11.8404 13.5528 13.1388 12.7326 13.8613L12.9102 14.0388C13.7608 14.8895 13.6734 16.2932 12.7238 17.0318L11.2972 18.1413C10.4545 18.7968 9.24562 18.6748 8.55085 17.8642L7.48149 16.6166C7.17078 16.2541 7 15.7925 7 15.315V11C5.61929 11 4.5 9.88071 4.5 8.5V7.5ZM6 7.5C6 5.29086 7.79086 3.5 10 3.5C12.2091 3.5 14 5.29086 14 7.5V8.5C14 9.05228 13.5523 9.5 13 9.5H11.5C11.2239 9.5 11 9.72386 11 10V11.0429C11 11.1755 11.0527 11.3027 11.1464 11.3964L11.7595 12.0095C12.0008 12.2508 11.9348 12.6576 11.6295 12.8102L10.8705 13.1898C10.5652 13.3424 10.4992 13.7492 10.7405 13.9905L11.8495 15.0995C12.0622 15.3122 12.0403 15.6631 11.8029 15.8477L10.3763 16.9573C10.1657 17.1212 9.86342 17.0907 9.68973 16.888L8.62037 15.6404C8.5427 15.5498 8.5 15.4344 8.5 15.315V10C8.5 9.72386 8.27614 9.5 8 9.5H7C6.44772 9.5 6 9.05228 6 8.5V7.5Z" fill="black"/>
</svg>

<svg viewBox="0 0 20 20" fill="none" xmlns="http://www.w3.org/2000/svg"><path d="M11 6.5a1 1 0 1 1-2 0 1 1 0 0 1 2 0Z" fill="#5C5F62"/><path fill-rule="evenodd" clip-rule="evenodd" d="M4.5 7.5a5.5 5.5 0 1 1 11 0v1a2.5 2.5 0 0 1-2.5 2.5h-.13c.784.84.683 2.139-.137 2.861l.177.178a2 2 0 0 1-.186 2.993l-1.427 1.11a2 2 0 0 1-2.746-.278l-1.07-1.247a2 2 0 0 1-.481-1.302v-4.315a2.5 2.5 0 0 1-2.5-2.5v-1Zm1.5 0a4 4 0 1 1 8 0v1a1 1 0 0 1-1 1h-1.5a.5.5 0 0 0-.5.5v1.043a.5.5 0 0 0 .146.353l.613.613a.5.5 0 0 1-.13.801l-.758.38a.5.5 0 0 0-.13.8l1.109 1.11a.5.5 0 0 1-.047.748l-1.427 1.11a.5.5 0 0 1-.686-.07l-1.07-1.248a.5.5 0 0 1-.12-.325v-5.315a.5.5 0 0 0-.5-.5h-1a1 1 0 0 1-1-1v-1Z" fill="#5C5F62"/></svg>
